src/assets/button/gold.svg

<svg xmlns="http://www.w3.org/2000/svg" width="390" height="100" fill="none" xmlns:v="https://vecta.io/nano"><path d="M348 100H42L0 50 42 0h306l42 50-42 50z" fill="url(#A)"/><g fill-rule="evenodd"><path d="M23 43l27-32h145 145l27 32h-4l-24-29-144 .114L51 14 27 43h-4z" fill="url(#B)"/><path d="M23 57l27 32h145 145l27-32h-4l-24 29-144-.114L51 86 27 57h-4z" fill="url(#C)"/></g><path d="M28 41l-9 9 9 9 9-9-9-9z" fill="url(#D)"/><path d="M362 41l-9 9 9 9 9-9-9-9z" fill="url(#E)"/><defs><linearGradient id="A" x1="399.236" y1="94.138" x2="322.39" y2="-69.858" href="#F"><stop stop-color="#ffba39"/><stop offset=".279" stop-color="#d8a956"/><stop offset=".629" stop-color="#ab750f"/></linearGradient><linearGradient id="B" x1="23" y1="27.211" x2="366.889" y2="27.211" href="#F"><stop stop-color="#fff" stop-opacity="0"/><stop offset=".516" stop-color="#fff"/><stop offset="1" stop-color="#fff" stop-opacity="0"/></linearGradient><linearGradient id="C" x1="23" y1="72.789" x2="366.889" y2="72.789" href="#F"><stop stop-color="#fff" stop-opacity="0"/><stop offset=".516" stop-color="#fff"/><stop offset="1" stop-color="#fff" stop-opacity="0"/></linearGradient><linearGradient id="D" x1="28" y1="41" x2="28" y2="59" href="#F"><stop stop-color="#f5f1ee"/><stop offset="1" stop-color="#d8a956"/></linearGradient><linearGradient id="E" x1="362" y1="41" x2="362" y2="59" href="#F"><stop stop-color="#f5f1ee"/><stop offset="1" stop-color="#d8a956"/></linearGradient><linearGradient id="F" gradientUnits="userSpaceOnUse"/></defs></svg>

<svg width="390" height="100" viewBox="0 0 390 100" fill="none" xmlns="http://www.w3.org/2000/svg">
<g id="gold">
<path id="shape" d="M348 100L42 100L-4.35954e-06 50L42 6.10216e-05L348 6.47167e-05L390 50L348 100Z" fill="url(#paint0_linear_2242_92724)"/>
<path id="line" fill-rule="evenodd" clip-rule="evenodd" d="M23 43L50 11H195H340L367 43H363L339 14L195 14.114L51 14L27 43H23Z" fill="url(#paint1_linear_2242_92724)"/>
<path id="line_2" fill-rule="evenodd" clip-rule="evenodd" d="M23 57L50 89H195H340L367 57H363L339 86L195 85.886L51 86L27 57H23Z" fill="url(#paint2_linear_2242_92724)"/>
<path id="square" d="M28 41L19 50L28 59L37 50L28 41Z" fill="url(#paint3_linear_2242_92724)"/>
<path id="square_2" d="M362 41L353 50L362 59L371 50L362 41Z" fill="url(#paint4_linear_2242_92724)"/>
</g>
<defs>
<linearGradient id="paint0_linear_2242_92724" x1="399.236" y1="94.1379" x2="322.39" y2="-69.8584" gradientUnits="userSpaceOnUse">
<stop stop-color="#FFBA39"/>
<stop offset="0.279" stop-color="#D8A956"/>
<stop offset="0.629" stop-color="#AB750F"/>
</linearGradient>
<linearGradient id="paint1_linear_2242_92724" x1="23" y1="27.2109" x2="366.889" y2="27.211" gradientUnits="userSpaceOnUse">
<stop stop-color="white" stop-opacity="0"/>
<stop offset="0.516" stop-color="white"/>
<stop offset="1" stop-color="white" stop-opacity="0"/>
</linearGradient>
<linearGradient id="paint2_linear_2242_92724" x1="23" y1="72.7891" x2="366.889" y2="72.789" gradientUnits="userSpaceOnUse">
<stop stop-color="white" stop-opacity="0"/>
<stop offset="0.516" stop-color="white"/>
<stop offset="1" stop-color="white" stop-opacity="0"/>
</linearGradient>
<linearGradient id="paint3_linear_2242_92724" x1="28" y1="41" x2="28" y2="59" gradientUnits="userSpaceOnUse">
<stop stop-color="#F5F1EE"/>
<stop offset="1" stop-color="#D8A956"/>
</linearGradient>
<linearGradient id="paint4_linear_2242_92724" x1="362" y1="41" x2="362" y2="59" gradientUnits="userSpaceOnUse">
<stop stop-color="#F5F1EE"/>
<stop offset="1" stop-color="#D8A956"/>
</linearGradient>
</defs>
</svg>
